X:127
M:4/4
L:1/4
K:D
F F B B | A3/2 G/ F D | A F B A | G G F2 | E E E C | D E F F | F ^G A B | A G F2 | !sintro!c c d c/B/ | ^A B c F | d c/B/ ^A B | B ^A B2 !eintro!|]
